assets/svg/icon_article_link.svg

<svg width="24" height="24" viewBox="0 0 24 24" fill="none" xmlns="http://www.w3.org/2000/svg">
<path d="M12.6326 15.0389L13.7771 13.8937C15.6733 11.9963 15.6733 8.92004 13.7771 7.02265C11.8809 5.12526 8.8065 5.12526 6.9103 7.02265L4.62137 9.313C2.72517 11.2104 2.72517 14.2867 4.62137 16.1841C5.50072 17.064 6.63345 17.5358 7.78454 17.5996" stroke="#0166FF" stroke-width="1.2" stroke-linecap="round"/>
<path d="M11.3674 8.96112L10.2229 10.1063C8.32673 12.0037 8.32673 15.08 10.2229 16.9773C12.1191 18.8747 15.1935 18.8747 17.0897 16.9773L19.3786 14.687C21.2748 12.7896 21.2748 9.71334 19.3786 7.81595C18.4993 6.93605 17.3666 6.4642 16.2155 6.40039" stroke="#0166FF" stroke-width="1.2" stroke-linecap="round"/>
</svg>

<svg xmlns="http://www.w3.org/2000/svg" width="24" height="24" fill="none"><path stroke="#0166FF" stroke-linecap="round" stroke-width="1.2" d="m12.633 15.039 1.144-1.145a4.86 4.86 0 0 0 0-6.871 4.853 4.853 0 0 0-6.867 0l-2.289 2.29A4.86 4.86 0 0 0 7.785 17.6"/><path stroke="#0166FF" stroke-linecap="round" stroke-width="1.2" d="m11.367 8.961-1.144 1.145a4.86 4.86 0 0 0 0 6.871 4.853 4.853 0 0 0 6.867 0l2.289-2.29A4.86 4.86 0 0 0 16.215 6.4"/></svg>
